X:1
T:B b Major Timothy Swan, 1801
T:Timothy Swan, 1801        88. 88. (L. M.)
T:London
T:Transcribed from Swan's New England Harmony, 1801.
%%score [ 1 2 3 4 ]
L:1/8
Q:1/4=120
M:4/4
K:Bb
V:1 treble nm="Tr." snm="Tr."
V:2 treble nm="C." snm="C."
V:3 treble-8 nm="T." snm="T."
V:4 bass nm="B." snm="B."
V:1
"^Methinks I hear the heav'ns resound, And  all  the       earth     ex – ul   –  ting    ring,         To    u – sher    in      this     glorious day,  And" B4 c2 c2 | %1
 d2 d2 f2 c2 | f3 e d2 de | f3 B cB AG | F4 z2 B2 | c2 BA BA G2 | F2 BA B2 B2 | %7
"^hail  _________  the     spot– less    in  –  fant  King,                                                               And   hail ____________________________   the     spotless infant" B6 fe | %8
 d2 B2 c2 c2 | d4 z4 | z8 | z4 z2 B2 | (A2 c2 f2 e2 | d6) ed | c2 c2 c2 c2 | %15
"^King,     And  hail     the   spot –  less              in    –   fant          King." c4 z2 d2 | %16
 (f4 d2) d2 | (d4 B2) B2 | f4 (cd e2) | d8 |] %20
V:2
"^Methinks I hear the heav'ns resound, And  all  the       earth     ex – ul   –  ting    ring,                                                                                     And" F4 F2 F2 | %1
 B2 B2 A2 A2 | B3 G F2 F2 | F2 B2 G2 G2 | [FA]4 z4 | z8 | z4 z2 F2 | %7
"^hail  _________  the     spot– less    in  –  fant    King,   To usher in this glorious day,  And hail ____________________________   the       spotless infant" (B3 A G2) F2 | %8
 G2 B2 F2 F2 | F4 z2 B2 | A2 A2 A2 F2 | B2 B2 B2 B2 | (A4 G4 | F3 G A2) B2 | G2 G2 G2 G2 | %15
"^King,     And  hail     the   spot –  less              in    –   fant          King." F4 z2 B2 | %16
 B6 F2 | B4 B4 | F4 [FA]4 | [FB]8 |] %20
V:3
"^Methinks I hear the heav'ns resound, And  all  the       earth     ex – ul   –  ting    ring,          To    u – sher    in     this    glorious  day,  And" B4 A2 A2 | %1
 B2 B2 c2 c2 | d3 e f2 fe | d3 d eg c2 | c4 z2 B2 | F2 F2 F2 E2 | D2 F2 B2 Bd | %7
"^hail  _________  the     spot– less    in  –  fant   King,                                                           And   hail ____________________________     the     spotless infant" e6 dc | %8
 Bd cB A2 A2 | B4 z4 | z8 | z4 z2 d2 | (f3 e d2 e2 | f6) cd | e2 e2 e2 g2 | %15
"^King,     And  hail     the   spot –  less              in    –   fant          King." c4 z2 B2 | %16
 d4 f4 | (f4 cd) e2 | (d2 f2) c4 | B8 |] %20
V:4
 B,4 F,2 F,2 | G,2 B,2 F,2 F,2 | B,3 C D2 DC | B,2 G,B, C2 C,2 | F,4 z4 | z8 | z4 z2"^And" B,2 | %7
"^hail  _________  the     spot– less    in  –  fant   King,    To   usher in this  glorious day, And hail ____________________________   the     spotless infant" E,6 B,A, | %8
 G,2 G,2 F,D, F,2 | B,,4 z2 D,2 | D,2 F,2 D,2 F,2 | B,,2 B,,2 B,,2 B,2 | (F,4 B,2 C2 | D6) CB, | %14
 C2 C2 C,2 C,2 | F,4 z2 B,2 | B,4 B,4 | (D2 B,2 G,2) E,2 | F,4 F,4 | B,,8 |] %20

